icons/svg/education/college_vocational.svg

<?xml version="1.0" encoding="UTF-8" standalone="no"?>
<!-- Created with Inkscape (http://www.inkscape.org/) -->

<svg
   xmlns:dc="http://purl.org/dc/elements/1.1/"
   xmlns:cc="http://creativecommons.org/ns#"
   xmlns:rdf="http://www.w3.org/1999/02/22-rdf-syntax-ns#"
   xmlns:svg="http://www.w3.org/2000/svg"
   xmlns="http://www.w3.org/2000/svg"
   xmlns:sodipodi="http://sodipodi.sourceforge.net/DTD/sodipodi-0.dtd"
   xmlns:inkscape="http://www.inkscape.org/namespaces/inkscape"
   version="1.0"
   width="580"
   height="580"
   id="svg2"
   sodipodi:version="0.32"
   inkscape:version="0.47 r22583"
   sodipodi:docname="education_colledge.svg"
   inkscape:output_extension="org.inkscape.output.svg.inkscape">
  <metadata
     id="metadata2975">
    <rdf:RDF>
      <cc:Work
         rdf:about="">
        <dc:format>image/svg+xml</dc:format>
        <dc:type
           rdf:resource="http://purl.org/dc/dcmitype/StillImage" />
        <cc:license
           rdf:resource="http://web.resource.org/cc/PublicDomain" />
        <dc:language>en</dc:language>
        <dc:title></dc:title>
      </cc:Work>
    </rdf:RDF>
  </metadata>
  <sodipodi:namedview
     inkscape:window-height="947"
     inkscape:window-width="1048"
     inkscape:pageshadow="2"
     inkscape:pageopacity="0.0"
     guidetolerance="10.0"
     gridtolerance="10.0"
     objecttolerance="10.0"
     borderopacity="1.0"
     bordercolor="#666666"
     pagecolor="#ffffff"
     id="base"
     inkscape:zoom="0.23041928"
     inkscape:cx="582.53516"
     inkscape:cy="-75.588533"
     inkscape:window-x="106"
     inkscape:window-y="56"
     inkscape:current-layer="svg2"
     showgrid="false"
     inkscape:window-maximized="0" />
  <defs
     id="defs4">
    <inkscape:perspective
       sodipodi:type="inkscape:persp3d"
       inkscape:vp_x="0 : 290 : 1"
       inkscape:vp_y="0 : 1000 : 0"
       inkscape:vp_z="580 : 290 : 1"
       inkscape:persp3d-origin="290 : 193.33333 : 1"
       id="perspective2441" />
    <inkscape:perspective
       id="perspective3452"
       inkscape:persp3d-origin="30 : 20 : 1"
       inkscape:vp_z="60 : 30 : 1"
       inkscape:vp_y="0 : 1000 : 0"
       inkscape:vp_x="0 : 30 : 1"
       sodipodi:type="inkscape:persp3d" />
    <symbol
       viewBox="244.5 110 489 219.9"
       id="symbol-university">
      <path
         id="path4460"
         d="M79,43l57,119c0,0,21-96,104-96s124,106,124,106l43-133l82-17L0,17L79,43z" />
      <path
         id="path4462"
         d="M94,176l-21,39"
         stroke-width="20"
         stroke="#000000"
         fill="none" />
      <path
         id="path4464"
         d="M300,19c0,10.5-22.6,19-50.5,19S199,29.5,199,19s22.6-19,50.5-19S300,8.5,300,19z" />
      <path
         id="path4466"
         d="M112,216l-16-38L64,88c0,0-9-8-4-35s16-24,16-24"
         stroke-width="20"
         stroke="#000000"
         ill="none" />
    </symbol>
    <inkscape:perspective
       id="perspective4471"
       inkscape:persp3d-origin="372.04724 : 350.78739 : 1"
       inkscape:vp_z="744.09448 : 526.18109 : 1"
       inkscape:vp_y="0 : 1000 : 0"
       inkscape:vp_x="0 : 526.18109 : 1"
       sodipodi:type="inkscape:persp3d" />
    <inkscape:perspective
       id="perspective4668"
       inkscape:persp3d-origin="6 : 4 : 1"
       inkscape:vp_z="12 : 6 : 1"
       inkscape:vp_y="0 : 1000 : 0"
       inkscape:vp_x="0 : 6 : 1"
       sodipodi:type="inkscape:persp3d" />
    <marker
       viewBox="0 0 10 10"
       refY="5"
       refX="10"
       orient="auto"
       markerWidth="4"
       markerUnits="strokeWidth"
       markerHeight="3"
       id="ArrowStart">
      <path
         id="path3634"
         d="M 10 0 L 0 5 L 10 10 z" />
    </marker>
    <marker
       viewBox="0 0 10 10"
       refY="5"
       refX="0"
       orient="auto"
       markerWidth="4"
       markerUnits="strokeWidth"
       markerHeight="3"
       id="ArrowEnd">
      <path
         id="path3631"
         d="M 0 0 L 10 5 L 0 10 z" />
    </marker>
    <inkscape:perspective
       id="perspective2510"
       inkscape:persp3d-origin="306.082 : 204.39034 : 1"
       inkscape:vp_z="612.164 : 306.58551 : 1"
       inkscape:vp_y="0 : 1000 : 0"
       inkscape:vp_x="0 : 306.58551 : 1"
       sodipodi:type="inkscape:persp3d" />
    <marker
       viewBox="0 0 10 10"
       refY="5"
       refX="10"
       orient="auto"
       markerWidth="4"
       markerUnits="strokeWidth"
       markerHeight="3"
       id="marker2611">
      <path
         id="path1325"
         d="M 10 0 L 0 5 L 10 10 z" />
    </marker>
    <marker
       viewBox="0 0 10 10"
       refY="5"
       refX="0"
       orient="auto"
       markerWidth="4"
       markerUnits="strokeWidth"
       markerHeight="3"
       id="marker2608">
      <path
         id="path1322"
         d="M 0 0 L 10 5 L 0 10 z" />
    </marker>
    <inkscape:perspective
       id="perspective2605"
       inkscape:persp3d-origin="306.082 : 204.39034 : 1"
       inkscape:vp_z="612.164 : 306.58551 : 1"
       inkscape:vp_y="0 : 1000 : 0"
       inkscape:vp_x="0 : 306.58551 : 1"
       sodipodi:type="inkscape:persp3d" />
    <inkscape:perspective
       id="perspective2656"
       inkscape:persp3d-origin="372.04724 : 350.78739 : 1"
       inkscape:vp_z="744.09448 : 526.18109 : 1"
       inkscape:vp_y="0 : 1000 : 0"
       inkscape:vp_x="0 : 526.18109 : 1"
       sodipodi:type="inkscape:persp3d" />
    <inkscape:perspective
       id="perspective4707"
       inkscape:persp3d-origin="0.5 : 0.33333333 : 1"
       inkscape:vp_z="1 : 0.5 : 1"
       inkscape:vp_y="0 : 1000 : 0"
       inkscape:vp_x="0 : 0.5 : 1"
       sodipodi:type="inkscape:persp3d" />
    <clipPath
       id="clipoutline1"
       clipPathUnits="userSpaceOnUse">
      <path
         d="m 22.42,17.2 12.96,12.95 -2.5,8.78 -8.78,2.5 -12.96,-12.96 -5.86,5.86 14.89,21.46 17.56,-3.34 61.63,65.62 c 9.44,9.51 22.17,-4.75 13.34,-12.87 L 46.85,42.92 50.86,25.16 28.72,10.89 22.42,17.2 z m 81.06,91.97 c 1.68,-1.68 4.4,-1.68 6.08,0 1.68,1.68 1.68,4.4 0,6.08 -1.68,1.67 -4.4,1.67 -6.08,0 -1.68,-1.68 -1.68,-4.4 0,-6.08 z"
         id="outline1" />
    </clipPath>
    <inkscape:perspective
       id="perspective5296"
       inkscape:persp3d-origin="0.5 : 0.33333333 : 1"
       inkscape:vp_z="1 : 0.5 : 1"
       inkscape:vp_y="0 : 1000 : 0"
       inkscape:vp_x="0 : 0.5 : 1"
       sodipodi:type="inkscape:persp3d" />
    <clipPath
       id="clipoutline1-9"
       clipPathUnits="userSpaceOnUse">
      <path
         d="m 22.42,17.2 12.96,12.95 -2.5,8.78 -8.78,2.5 -12.96,-12.96 -5.86,5.86 14.89,21.46 17.56,-3.34 61.63,65.62 c 9.44,9.51 22.17,-4.75 13.34,-12.87 L 46.85,42.92 50.86,25.16 28.72,10.89 22.42,17.2 z m 81.06,91.97 c 1.68,-1.68 4.4,-1.68 6.08,0 1.68,1.68 1.68,4.4 0,6.08 -1.68,1.67 -4.4,1.67 -6.08,0 -1.68,-1.68 -1.68,-4.4 0,-6.08 z"
         id="outline1-7" />
    </clipPath>
  </defs>
  <g
     id="g1327">
    <path
       d="M 66.275,1.768 C 24.94,1.768 1.704,23.139 1.704,66.804 L 1.704,516.927 C 1.704,557.771 22.599,579.156 63.896,579.156 L 515.92,579.156 C 557.227,579.156 578.149,558.841 578.149,516.927 L 578.149,66.804 C 578.149,24.203 557.227,1.768 514.628,1.768 C 514.624,1.768 66.133,1.625 66.275,1.768 z"
       style="fill:#111111;stroke:#eeeeee;stroke-width:3.40799999"
       id="path1329" />
  </g>
  <path
     style="font-size:medium;font-style:normal;font-variant:normal;font-weight:normal;font-stretch:normal;text-indent:0;text-align:start;text-decoration:none;line-height:normal;letter-spacing:normal;word-spacing:normal;text-transform:none;direction:ltr;block-progression:tb;writing-mode:lr-tb;text-anchor:start;opacity:0.75;color:#000000;fill:#ffffff;fill-opacity:1;stroke:none;stroke-width:30.78683472;marker:none;visibility:visible;display:inline;overflow:visible;enable-background:accumulate;font-family:Bitstream Charter;-inkscape-font-specification:Bitstream Charter"
     d="M 288.875 46.5 A 15.394957 15.394957 0 0 0 274.875 56.09375 L 235.28125 149.8125 L 268.71875 149.8125 L 290.65625 97.875 L 312.65625 149.8125 L 346.09375 149.8125 L 306.375 56.09375 A 15.394957 15.394957 0 0 0 290.5625 46.59375 A 15.394957 15.394957 0 0 0 288.875 46.5 z M 127.96875 423.8125 L 95.3125 502.8125 A 15.394957 15.394957 0 1 0 123.75 514.5625 L 161.25 423.8125 L 127.96875 423.8125 z M 418 423.8125 L 424.09375 433.6875 L 457.46875 514.5625 A 15.399125 15.399125 0 1 0 485.9375 502.8125 L 453.28125 423.8125 L 418 423.8125 z "
     id="path3526" />
  <path
     style="fill:#ffffff;fill-opacity:1;stroke:none"
     d="m 75.589915,152.52897 0,268.56706 429.070175,0 0,-268.56706 -429.070175,0 z m 93.024425,67.35618 c 1.69835,0.0412 3.34729,0.99707 4.22699,2.45043 l 15.65211,25.88266 0.24505,0.36756 c 4.78146,6.64604 7.56875,13.56155 11.3026,17.64309 89.82523,-0.87913 179.62795,-1.76877 269.45533,-2.63421 0.0837,-0.005 0.16154,0.004 0.24505,0 16.92664,-0.82745 30.13192,14.31025 29.74208,30.44659 l 0.0306,0 c 0.005,0.0932 -0.004,0.18265 0,0.27567 -0.002,0.0718 0.003,0.14266 0,0.21441 l -0.0306,0 c 0.57941,16.08438 -12.60726,30.50197 -29.03758,30.50785 -0.0715,0.002 -0.14296,0.002 -0.21442,0 -65.13349,-2.59913 -130.20371,-6.36323 -195.23795,-9.40353 -0.0102,-3.8e-4 -0.0204,4e-4 -0.0306,0 -25.28242,-0.95992 -50.58417,-3.0031 -75.3507,-3.33871 -10.12741,12.78879 -19.26749,27.15782 -29.37452,40.89154 -1.13787,1.56225 -3.22069,2.37293 -5.11527,1.99098 L 91.425814,340.44627 c -2.310209,-0.46827 -4.120652,-2.72791 -4.073839,-5.08464 L 87.71954,314.3492 c 0.04789,-2.64171 2.473173,-5.00892 5.115271,-4.99275 17.206489,0.025 34.423389,1.04105 50.938299,0.55135 4.28276,-6.4769 8.32938,-13.39659 11.7008,-20.24668 -3.0979,-6.98411 -6.98248,-14.08994 -11.02693,-20.67549 -16.99259,-1.05278 -34.57622,-0.64877 -52.194146,-1.22522 -2.641712,-0.0793 -4.980272,-2.53407 -4.931489,-5.17653 l 0.367564,-23.0034 c 0.04312,-2.3123 1.863041,-4.46924 4.1351,-4.90086 l 75.687631,-14.70258 c 0.36278,-0.0706 0.73325,-0.10169 1.1027,-0.0919 z m 302.26045,64.84449 c -0.22207,-0.002 -0.44805,0.0122 -0.67387,0.0306 -0.13226,0.0154 -0.26512,0.0257 -0.39819,0.0306 -6.21112,0.0169 -11.03765,7.03242 -8.91344,12.86475 0.0345,0.11122 0.0651,0.22362 0.0919,0.33693 2.00971,6.95647 13.27682,8.55131 17.12238,2.38917 0.0946,-0.1481 0.19688,-0.2913 0.3063,-0.42882 4.31272,-5.5182 -0.65092,-15.16322 -7.53507,-15.22329 z"
     id="rect3530" />
  <rect
     y="149.82085"
     x="73.263283"
     height="273.98654"
     width="437.7486"
     id="rect3544"
     style="fill:none;stroke:#ffffff;stroke-width:20.52455710999999994;stroke-linecap:round;stroke-linejoin:round;stroke-miterlimit:4;stroke-opacity:1;stroke-dasharray:none;stroke-dashoffset:0" />
</svg>

<svg width="580" height="580" viewBox="0 0 580 580" fill="none" xmlns="http://www.w3.org/2000/svg">
<g clip-path="url(#clip0)">
<path d="M66.275 1.76799C24.94 1.76799 1.70398 23.139 1.70398 66.804V516.927C1.70398 557.771 22.599 579.156 63.896 579.156H515.92C557.227 579.156 578.149 558.841 578.149 516.927V66.804C578.149 24.203 557.227 1.76799 514.628 1.76799C514.624 1.76799 66.133 1.62499 66.275 1.76799Z" fill="#111111" stroke="#EEEEEE" stroke-width="3.408"/>
<path opacity="0.75" d="M288.875 46.5C285.858 46.5512 282.923 47.4878 280.434 49.1934C277.945 50.8991 276.012 53.2986 274.875 56.0938L235.281 149.812H268.719L290.656 97.875L312.656 149.812H346.094L306.375 56.0938C305.119 53.0149 302.9 50.4256 300.049 48.7132C297.199 47.0007 293.871 46.2572 290.563 46.5938C290.002 46.5316 289.439 46.5003 288.875 46.5V46.5ZM127.969 423.812L95.3125 502.812C94.4531 504.695 93.9819 506.731 93.927 508.799C93.8721 510.867 94.2347 512.925 94.9931 514.85C95.7516 516.775 96.8902 518.528 98.3411 520.003C99.792 521.478 101.525 522.645 103.438 523.435C105.35 524.226 107.402 524.622 109.471 524.601C111.54 524.581 113.583 524.143 115.479 523.315C117.375 522.487 119.085 521.285 120.506 519.781C121.927 518.277 123.03 516.502 123.75 514.562L161.25 423.812H127.969ZM418 423.812L424.094 433.688L457.469 514.562C459.027 518.338 462.021 521.339 465.792 522.907C469.563 524.475 473.803 524.48 477.578 522.922C481.353 521.364 484.355 518.37 485.923 514.598C487.49 510.827 487.496 506.588 485.938 502.812L453.281 423.812H418Z" fill="white"/>
<path d="M75.5899 152.529V421.096H504.66V152.529H75.5899V152.529ZM168.614 219.885C170.313 219.926 171.962 220.882 172.841 222.336L188.493 248.218L188.738 248.586C193.52 255.232 196.307 262.147 200.041 266.229C289.866 265.35 379.669 264.46 469.496 263.595C469.58 263.59 469.658 263.599 469.741 263.595C486.668 262.767 499.873 277.905 499.484 294.041H499.514C499.519 294.134 499.51 294.224 499.514 294.317C499.512 294.389 499.517 294.46 499.514 294.531H499.484C500.063 310.616 486.876 325.033 470.446 325.039C470.374 325.041 470.303 325.041 470.232 325.039C405.098 322.44 340.028 318.676 274.994 315.636C274.983 315.635 274.973 315.636 274.963 315.636C249.681 314.676 224.379 312.633 199.612 312.297C189.485 325.086 180.345 339.455 170.238 353.189C169.1 354.751 167.017 355.561 165.123 355.179L91.4258 340.446C89.1156 339.978 87.3052 337.718 87.352 335.362L87.7195 314.349C87.7674 311.708 90.1927 309.34 92.8348 309.356C110.041 309.381 127.258 310.398 143.773 309.908C148.056 303.431 152.102 296.511 155.474 289.661C152.376 282.677 148.491 275.571 144.447 268.986C127.454 267.933 109.871 268.337 92.2528 267.76C89.6111 267.681 87.2726 265.226 87.3213 262.584L87.6889 239.58C87.732 237.268 89.5519 235.111 91.824 234.68L167.512 219.977C167.874 219.906 168.245 219.875 168.614 219.885V219.885ZM470.875 284.73C470.653 284.728 470.427 284.742 470.201 284.76C470.069 284.776 469.936 284.786 469.803 284.791C463.592 284.808 458.765 291.823 460.889 297.656C460.924 297.767 460.954 297.879 460.981 297.993C462.991 304.949 474.258 306.544 478.104 300.382C478.198 300.234 478.3 300.09 478.41 299.953C482.723 294.435 477.759 284.79 470.875 284.73V284.73Z" fill="white"/>
<path d="M511.012 149.821H73.2633V423.807H511.012V149.821Z" stroke="white" stroke-width="20.5246" stroke-linecap="round" stroke-linejoin="round"/>
</g>
<defs>
<clipPath id="clip0">
<path d="M0 0H580V580H0V0Z" fill="white"/>
</clipPath>
</defs>
</svg>
